X:2388
T:Car-y-Phoosee 
C:Mary Gawne, Peel 
C:Traditional
O:Isle of Man
Z:Clague collection
B:Kiaull Vannin #388
N:See also KV225,283. 
M:3/8 
L:1/8
K:G 
B2G|G2G|GGG|B2G|G2B|d3|B2G|G2G|GGG|FFF|D2D|D2d|
B2G|G2G|GGG|B2G|G2B|d2d|B2B|A2A|AFA|F2A|A2G|GGG|G3||

